X: 163
T: No_86_If_He_Is_a_Warrior.krn
%%abc-version 2.0
%%abcx-abcm2ps-target-version 5.9.1 (29 Sep 2008)
%%abc-creator hum2abc beta
%%abcx-conversion-date 2020/08/10 18:54:57
%%gracespace 0 6 6
%%humdrum-veritas 3479483492
%%humdrum-veritas-data 3889631964
%%linebreak <none>
%%barnumbers 0
L: 1/8
M: 3/4
%%staves {1 2}
V: 1 clef=bass
V: 2 clef=bass
K: A
[V:1] E/ [I:setbarnb 1]| 
[V:2] z/ | 
[V:1] E2C2(3ECB, ||  
[V:2] !accent!G,,2!accent!G,,2!accent!G,,2 ||  
[V:1] [M:2/4]A,A,A,2 | 
[V:2] [M:2/4]!accent!G,,2!accent!G,,2 | 
[V:1] A,<A, z3/ E/ ||  
[V:2] z4 ||  
[V:1] [M:3/4]E2C2(3ECB, ||  
[V:2] [M:3/4]z6 ||  
[V:1] [M:2/4]A,A,A,2 | 
[V:2] [M:2/4]z4 | 
[V:1] A,<A, z3/ B,/ ||  
[V:2] z4 ||  
[V:1] [M:3/4]B,B, A,>B, (3B,F,E, ||  
[V:2] [M:3/4]z6 ||  
[V:1] [M:2/4]E,E,E,2 | 
[V:2] [M:2/4]z4 | 
[V:1] E,<E, z3/ F,/ | 
[V:2] z4 | 
[V:1] F,B, A,3/B,/ ||  
[V:2] z4 ||  
[V:1] [M:3/4]A,<A, E,E,E,2 ||  
[V:2] [M:3/4]z6 ||  
[V:1] [M:2/4](3F,F,E,E,2 | 
[V:2] [M:2/4]z4 | 
[V:1] E,3E, ||  
[V:2] z4 ||  
[V:1] [M:3/4]E,6 | 
[V:2] [M:3/4]z6 | 
[V:1] B,B, B,B, B,3/B,/ ||  
[V:2] z6 ||  
[V:1] [M:2/4]B,A,/E,/ E,E, ||  
[V:2] [M:2/4]z4 ||  
[V:1] [M:3/4]E,2E,E, z3/ F,/ ||  
[V:2] [M:3/4]z6 ||  
[V:1] [M:2/4]F,B, A,3/B,/ ||  
[V:2] [M:2/4]z4 ||  
[V:1] [M:3/4]A,<A, E,E,E,2 ||  
[V:2] [M:3/4]z6 ||  
[V:1] [M:2/4](3F,F,E,E,2 | 
[V:2] [M:2/4]z4 | 
[V:1] E,3E, ||  
[V:2] z4 ||  
[V:1] [M:3/4]E,2-E,7/z/ |]  
[V:2] [M:3/4]z6 |]  


